X:1819
T:Espie McNabb
O:England
M:4/4
L:1/8
Q:1/4=220
K:F
V:1
"Gm" HG4 z2 g2  |:"Gm" dg g^f g2 df |"F" cd fg df cf |"Gm" dg g^f g2 dg |
"Dm" fd cA "Gm" G4 |"Gm" dg g^f g2 df |"F" cd fg af cf |"Gm" df ga ba gf |
"Dm" df dc "Gm" G3 d|B Gd GB Gd e|"F" f dc fc Bd A|"Gm" B Gd GB Gd f|
"Dm" f dc A"Gm" G3 d|B Gd GB Gd e|"F" f dc fc Ad A|"Gm" G AB cd ef g|
"Dm" f dc A"Gm" G4 :| |:
K:C
"Am" EA2 ^GA Bc A|E A2 ^GA2 A2 |EA2 ^GA Bc e|"G" d cB AG2 G2 |
"Am" EA2 ^GA Bc A|E A2 ^GA2 A2 |EA2 ^GA Bc e|"G" d cB AG2 G2 |
"Am" c2 "G" ec "C" dc BG |c2 ec "Am" A2 AB |cB cd ef ge |"G" dc BA G2 G2 |
"Am" c2 "G" ec "C" dc BA |c2 ec "Am" A2 AB |cB cd ef ge |"G" dc BA G2 G2 :| |:
"Am" A2  (3cBA c3 c|"G" B Gd Ge Gd G|"Am" A2  (3cBA cA eA |"G" cA dA "Am" e4 :| |:
"Am" A2 a2 ee a2 |"G" ge dB dB eB |"Am" A2 a2 ee a2 |"G" ge ^fd "Am" e4 :| |:
K:Em
"Em" eE EF B2 Bc |"D" dB Ad BE AF |"Em" EF GA B2 Bf |"D" ed Bd "Em" e2 ef :|
"Em" eB ef gb eg |"D" fa da fd af |"Em" eB ef gb eg |"B7" f_e B_e e2 ef |
"Em" eB gB gb eg |"D" fd ad fa df |"Em" bg eg bg eg |"B7" f_e B_e "Em" e4 |]
